X:16
T:ROND DE LOUDEAC 10
Z: Yves Belotteau
M:4/4
L:1/8
Q:1/4=120
K:G 
|AGAB G3/2 z/2 EB|AGAB G3/2 z/2 EB|AGAB G3/2 z/2 EB|AGAB G3/2 z/2 EE3/2 
z/2 |
A3/2 z/2 GA BGGG|E3/2 z/2 FG A3/2 z/2 A3/2 z/2 |AAGA BGGG|E3/2 z/2 A3/2 
z/2 G3/2 z/2 A3/2 z/2 |
AAGA BGGG|E3/2 z/2 FG A3/2 z/2 A3/2 z/2 |AAGA BGGG|E3/2 z/2 A3/2 z/2 GBA
G|
ABd3/2 z/2 BdcB|AFG3/2 z/2 EBAG|ABd3/2 z/2 BdcB|AFG7/2|
